X: 30151
T: Old Copperplate, The
R: reel
M: 4/4
K: Adorian
|:A2EA cAEA|aged cAFA|G2DG BGBd|gedc BAGB|
A2EA cAA2|aged cAGB|ABcd efge|aged cAA2:|
|:ageg a3b|aged cAA2|gfef g3a|gedc BGG2|
ageg a3b|aged cAGB|ABcd efge|aged cAA2:|

